X:1
T:A Bible Christian
T:A Bible Christian
T:Cyrus Hersell Hohgatt
T:A. M. K. Deidrick, 1914
T:Public Domain Courtesy of the Cyber Hymnal™
C:Cyrus Hersell Hohgatt
Z:Public Domain
Z:Courtesy of the Cyber Hymnal™
%%score ( 1 2 ) ( 3 4 )
L:1/8
Q:1/4=115
M:4/4
K:G
V:1 treble 
V:2 treble 
V:3 bass 
V:4 bass 
V:1
 [B,D]2 | [DB]3 [CA] [B,G]2 [DB]2 | [Gd]3 [Gc] [GB]2 [Gd]2 | [Ge]2 [Gd]2 [Ac]2 [GB]2 | %4
w: 1.~A|Bi- ble Christ- ian|I will be, For|Christ has done so|
w: 2.~Tho’|ma- ny fol- low|hu- man plans, Be-|lieve the creeds set|
w: 3.~The|Word by in- spir-|a- tion giv’n, The|chart that points the|
w: 4.~Be-|lieve in Christ, re-|pent of sin, Con-|fess your faith, and|
 [GB]3 [GA] [FA]2 [FA]2 | [GA]3 [GB] [GA]2 [GA]2 | [FA]3 [FB] [FA]2 [FA]2 | %7
w: much for me; Then|how could I my|Lord de- ny, And|
w: up by man; No|o- ther creed have|I to- day Than|
w: way to Heav’n; On|this I dare and|will de- pend, And|
w: peace you’ll win; Then|’neath the wa- ter|with Him go, And|
 [GB]2 [^GB]2 [=G^c]2 [Gc]2 |"^riten." [Fd]2 [Gd]2 !fermata![Fd]2 ||"^Refrain" [Fd]2 | %10
w: on the words of|men re- ly?||
w: Christ, who is the|Truth, the Way.|The|
w: with my life its|truth de- fend.||
w: you His peace and|joy shall know.||
 [Gd]3 [GB] [DA][DG] [DG]>[DF] | [DF]4 z2 [DA]2 | [Fd]3 [Fc] [FB][DA] [DG]>[GA] | [GB]4 z2 D2 | %14
w: ||||
w: Bi- ble’s good e- nough for|me, The|Bi- ble’s truth my creed shall|be; From|
w: ||||
w: ||||
 [Dd]2 [GB]2 [Fc]2 [Gd]2 | [Ge]2 [Bd]2 [Ac]2 .!fermata![Ge]2 | .[Gd]2 .[Ge] .[Gd]2 .[GB]2 | %17
w: |||
w: hu- man creeds I|turn a- way, I|stand for Christ a-|
w: |||
w: |||
 .[FA]3 .[DG] [DG]2 |] %18
w: |
w: lone to- day.|
w: |
w: |
V:2
 x2 | x8 | x8 | x8 | x8 | x8 | x8 | x8 | x6 || x2 | x8 | x8 | x8 | x6 D2 | x8 | x8 | x7 | x6 |] %18
V:3
 G,2 | G,3 G, G,2 G,2 | [G,B,]3 [G,E] [G,D]2 [G,B,]2 | C2 [B,D]2 [F,D]2 [G,D]2 | %4
 [E,^C]3 [A,C] [D,D]2 [D,D]2 | [E,^C]3 [A,,C] [E,C]2 [A,,C]2 | [D,D]3 [A,,D] [D,D]2 [D,D]2 | %7
 [G,D]2 [E,D]2 [A,E]2 [A,E]2 | [D,D]2 [D,B,]2 [D,C]2 || [D,C]2 | %10
 [G,B,]3 [G,D] [G,C][G,B,] [A,C]>[D,C] | [D,C]4 z2 [D,F,]2 | %12
 [D,A,]3 [D,E] [D,D][D,C] [G,B,]>[G,C] | [G,D]4 z2 [G,B,]2 | [G,B,]2 [G,D]2 [A,D]2 [B,D]2 | %15
 C2 [^G,E]2 [A,E]2 .!fermata![^C,^A,]2 | .[D,B,]2 .[D,C] .[D,B,]2 .[D,D]2 | %17
 .[D,C]3 .[G,B,] [G,B,]2 |] %18
V:4
 G,2 | G,3 G, G,2 G,2 | x8 | C2 x6 | x8 | x8 | x8 | x8 | x6 || x2 | x8 | x8 | x8 | x8 | x8 | %15
 ^C2 x6 | x7 | x6 |] %18

